Numix-GalliumOS/48/categories/applications-3D.svg

<?xml version="1.0" encoding="UTF-8" standalone="no"?>
<svg
   xmlns:dc="http://purl.org/dc/elements/1.1/"
   xmlns:cc="http://creativecommons.org/ns#"
   xmlns:rdf="http://www.w3.org/1999/02/22-rdf-syntax-ns#"
   xmlns:svg="http://www.w3.org/2000/svg"
   xmlns="http://www.w3.org/2000/svg"
   xmlns:sodipodi="http://sodipodi.sourceforge.net/DTD/sodipodi-0.dtd"
   xmlns:inkscape="http://www.inkscape.org/namespaces/inkscape"
   width="48"
   height="48"
   viewBox="0 0 38.4 38.4"
   id="svg2"
   version="1.1"
   inkscape:version="0.91 r"
   sodipodi:docname="applications-3D.svg">
  <metadata
     id="metadata21">
    <rdf:RDF>
      <cc:Work
         rdf:about="">
        <dc:format>image/svg+xml</dc:format>
        <dc:type
           rdf:resource="http://purl.org/dc/dcmitype/StillImage" />
        <dc:title />
      </cc:Work>
    </rdf:RDF>
  </metadata>
  <sodipodi:namedview
     pagecolor="#ffffff"
     bordercolor="#666666"
     borderopacity="1"
     objecttolerance="10"
     gridtolerance="10"
     guidetolerance="10"
     inkscape:pageopacity="0"
     inkscape:pageshadow="2"
     inkscape:window-width="1920"
     inkscape:window-height="1056"
     id="namedview19"
     showgrid="true"
     inkscape:zoom="19.873684"
     inkscape:cx="17.253691"
     inkscape:cy="22.194464"
     inkscape:window-x="0"
     inkscape:window-y="24"
     inkscape:window-maximized="1"
     inkscape:current-layer="svg2">
    <inkscape:grid
       type="xygrid"
       id="grid4149" />
  </sodipodi:namedview>
  <defs
     id="defs4" />
  <path
     sodipodi:nodetypes="ccccccccccccc"
     inkscape:connector-curvature="0"
     id="path13"
     d="M 4.000002,25.6 13.6,27 l 0,-5.2 -9.6,-0.6 0,-4 9.6,-0.6 0,-5.2 L 4,12.8 4,8.6 18.4,4.7999999 18.4,33.6 3.999998,29.8 Z"
     style="fill:#c18eb2;fill-rule:evenodd" />
  <path
     style="fill:#c18eb2"
     d="m 26,6 0,18 0,18 c 2,0 5.171376,-0.75883 8.013672,-1.925781 2.383195,-0.978463 4.727196,-2.05891 6.513672,-4.16211 C 43.000809,33.000119 43,26 43,24 43,22 43.000809,14.999882 40.527344,12.087891 38.740868,9.9846866 36.396867,8.9042403 34.013672,7.9257812 31.171376,6.7588305 28,6 26,6 Z m 6,8 c 2.000001,0.04057 3.822598,1.400769 4.822266,2.755859 C 37.999911,18.352206 38,23 38,24 c 0,1 -8.9e-5,5.647787 -1.177734,7.244141 C 35.822598,32.599224 34.000001,33.959425 32,34 l 0,-10 z"
     id="path15"
     inkscape:connector-curvature="0"
     sodipodi:nodetypes="cccsszssccszsccc"
     transform="scale(0.8,0.8)" />
  <flowRoot
     xml:space="preserve"
     id="flowRoot4135"
     style="font-style:normal;font-variant:normal;font-weight:normal;font-stretch:normal;font-size:37.5px;line-height:125%;font-family:Ubuntu;-inkscape-font-specification:Ubuntu;letter-spacing:0px;word-spacing:0px;fill:#000000;fill-opacity:1;stroke:none;stroke-width:1px;stroke-linecap:butt;stroke-linejoin:miter;stroke-opacity:1"
     transform="scale(0.8,0.8)"><flowRegion
       id="flowRegion4137"><rect
         id="rect4139"
         width="22"
         height="47"
         x="-49"
         y="-9" /></flowRegion><flowPara
       id="flowPara4141">DD</flowPara></flowRoot></svg>

<svg xmlns="http://www.w3.org/2000/svg" width="48" height="48" viewBox="0 0 38.4 38.4">
 <path d="m 4 25.6 9.6 1.4 l 0 -5.2 -9.6 -0.6 0 -4 9.6 -0.6 0 -5.2 l -9.6 1.4 0 -4.2 14.4 -3.8 0 28.8 -14.4 -3.8" style="fill:#c18eb2;fill-rule:evenodd"/>
 <path d="m 26 6 0 18 0 18 c 2 0 5.171 -0.759 8.01 -1.926 2.383 -0.978 4.727 -2.059 6.514 -4.162 c 2.473 -2.912 2.473 -9.912 2.473 -11.912 0 -2 0.001 -9 -2.473 -11.912 -1.786 -2.103 -4.13 -3.184 -6.514 -4.162 -2.842 -1.167 -6.01 -1.926 -8.01 -1.926 m 6 8 c 2 0.041 3.823 1.401 4.822 2.756 c 1.178 1.596 1.178 6.244 1.178 7.244 c 0 1 0 5.648 -1.178 7.244 c -1 1.355 -2.822 2.715 -4.822 2.756 l 0 -10 z" transform="scale(0.8,0.8)" style="fill:#c18eb2"/>
 <flowRoot transform="scale(0.8,0.8)" line-height="125%" style="letter-spacing:0;word-spacing:0;font-size:37.5;font-family:Ubuntu;fill:#000;fill-opacity:1;font-weight:normal;stroke:none;font-style:normal;font-variant:normal;font-stretch:normal">
  <flowRegion>
   <rect width="22" height="47" x="-49" y="-9"/>
  </flowRegion>
  <flowPara>DD</flowPara>
 </flowRoot>
</svg>
